X:1
T:Title
%%score 1 { 2 | 3 }
L:1/8
Q:1/4=98
M:4/4
K:Ab
V:1 treble nm="Grand Piano, Soprano"
V:2 bass nm="Choir Pad, Bass"
V:3 bass 
V:1
 [CE][CA] [Ec]2 [Ec]2 [Ec][EB] | [EA][EB] [FA]2 [DF]2 [CE]2 | [CE][EA] [EG]2 [EA]2 [EB]E | %3
w: By~Edmund~Simon~Lorenz * * * * *|||
 [EA][EB] [Ec]2 [Ec]2 [EB]2 | [EA][EB] [Ec]2 [Ec]2 [Ec][EB] | [EA][EB] [FA]2 [DF]2 [CE]2 | %6
w: |||
 [CE][CE] [EA]2 [EB]2 [Ec][_Ge] | [Fd][FB] [EA]2 [DG]2 [CA]2 | z [Ec] [Ae]2 [Ae]2 [Ae]2- | %9
w: |||
 [Ae]A [Ac]2 [Ac]2 [Ac]2- | [Ac]2 [FA]>[FB] [FA][DF][CE][CA] | [EA][Ec] [Ec]2 [EB]2 [EB]2- | %12
w: |||
 [EB][Ec] [Ae]2 [Ae]2 [Ae]2- | [Ae]A [Ac]2 [Ac]2 [Ac]2- | [Ac]2 [FA]>[FB] [FA][DF] [CE]2 | %15
w: |||
 [EA][Fd] [Ec]2 [DB]2 [CA]2- | [CA]6 z2 |] %17
w: ||
V:2
 A,A, A,2 A,2 A,G, | A,C D2 A,2 A,2 | A,A, B,2 C2 DG, | A,G, A,2 A,2 G,2 | A,G, A,2 A,2 A,G, | %5
 A,C D2 A,2 A,2 | A,A, A,2 G,2 A,A, | A,D C2 B,2 A,2 | z A,[K:treble] C2 C2 C2- | CC E2 E2 E2- | %10
 E2 D>D D[K:bass]A,A,A, | A,A, A,2 G,2 G,2- | G,A,[K:treble] C2 C2 C2- | CC E2 E2 E2- | %14
 E2 D>D D[K:bass]A, A,2 | A,A, A,2 G,2 A,2- | A,6 z2 |] %17
V:3
 A,,A,, A,,2 A,,2 A,,B,, | C,A,, D,2 D,2 A,,2 | A,,C, E,2 E,2 E,D, | C,B,, A,,2 C,2 E,>D, | %4
 C,B,, A,,2 A,,2 A,,B,, | z A,, D,2 D,2 A,,2 | A,,A,, C,2 E,2 z C, | D,D, E,2 E,2 A,,2 | %8
 z2 A,2 A,2 A,2- | A,[A,,A,] [A,,A,]2 [A,,A,]2 [A,,A,]2- | [A,,A,]2 D,>D, D,D,A,,A,, | %11
 C,A,, E,2 E,2 E,2- | E,2 A,2 A,2 A,2- | A,[A,,A,] [A,,A,]2 [A,,A,]2 [A,,A,]2- | %14
 [A,,A,]2 D,>D, D,D, A,,2 | C,D, E,2 E,2 A,,2- | A,,6 z2 |] %17

